X:1
T:The Word of God Shall Stand
T:The Word of God Shall Stand
T:Frank Claude Huston
T:Frank Claude Huston, 1910
T:Public Domain Courtesy of the Cyber Hymnal™
T:Public Domain Courtesy of the Cyber Hymnal™
C:Frank Claude Huston
Z:Public Domain
Z:Courtesy of the Cyber Hymnal™
%%score ( 1 2 ) ( 3 4 )
L:1/8
Q:1/4=110
M:4/4
K:Bb
V:1 treble 
V:2 treble 
V:3 bass 
V:4 bass 
V:1
 [DF]2 | [DF]3 [B,D] [DF]2 [DB]2 | [Fd]3 [Fc] [FB]2 [DF]2 | [EG]2 [EA]2 [EB]2 [EG]2 | [DF]6 [DF]2 | %5
w: 1.~The|Word of God shall|ev- er stand, Though|stormed by ev- ery|foe; Up-|
w: 2.~God’s|Word has stood the|fier- y darts Of|all the sin- ful|world; And|
w: 3.~Then|sound we forth His|glor- ious Word To|souls of all the|earth, To|
 [DF]3 [B,D] [DF]2 [DB]2 | [Fd]3 [Fc] [FB]2 [DB]2 | [DB]2 [=Ed]2 [Ec]2 [EB]2 | [Ec]6 [Fc]2 | %9
w: held by His al-|might- y hand, No|powers can o- ver-|throw. Though|
w: skep- tics all through|ag- es past Their|fierc- est blows have|hurled; It|
w: tell them of the|Fa- ther’s love, And|Je- sus’ match- less|worth. It|
 [Fe]3 [Fd] [Fc]2 F2 | [Fd]3 [Fc] [FB]2 [DF]2 | [EG]2 [EA]2 [EB]2 [Gc]2 | [^Fd]6 [Fd]2 | %13
w: all the powers of|hell en- gage, And|hosts of sin as-|sail God’s|
w: stands un- moved, a|might- y rock, ’Gainst|cru- el hate and|scorn, To|
w: is the Spir- it’s|might- y sword No|power on earth can|stay; Though|
 [Fe]2 [Fd]2 [Ec]2 [EB]2 | [^CA]2 [CG]2 [DF]2 [DB]2 | [Fd]3 [Ec] [DB]2 A2 | [DB]6 || %17
w: won- drous might, His|change- less Word Shall|ev- er- more pre-|vail.|
w: bless the na- tions|of the earth, And|na- tions yet un-|born.|
w: Heav’n and earth may|be re- moved, God’s|Word shall stand for|aye.|
"^Refrain" [DF]2 | [Fd]3 [Fd] [Fd]2 [Fd]2 | [Fd]6 [Ec]2 | [DB]3 [FA] [EG]2 [EB]2 | %21
w: ||||
w: The|Word of God shall|stand, Shall|stand un- changed for-|
w: ||||
 [EG]2 [DF]4 [DF]2 | [Fd]3 [Fd] [Fd]2 [Fd]2 | [Fd]6 [DB]2 | [=EB]3 [EB] [Ec]2 [Ed]2 | [Fc]6 [EF]2 | %26
w: |||||
w: ev- er; In|ev- ery clime and|land The|world shall own its|sway. The|
w: |||||
 [Fd]3 [Fd] [Fd]2 [Fd]2 | [Fd]6 [Ec]2 | [DB]3 [FA] [EG]2 [EB]2 | [EG]2 [DF]4 [DF]2 | %30
w: ||||
w: Word of God shall|stand, Its|foes can change it|ne- ver; Though|
w: ||||
 [DB]3 [DB] [^CB]3 [CB] | [DB]2 [Fd]2 !fermata![Ff]2 [=EB]2 | [Fd]2 [Ff]2 !fermata![Fd]3 [Ec] | %33
w: |||
w: Heav’n and earth may|pass a- way, God’s|Word shall stand for-|
w: |||
 [Ec]2 [DB]4 |] %34
w: |
w: ev- er.|
w: |
V:2
 x2 | x8 | x8 | x8 | x8 | x8 | x8 | x8 | x8 | x6 F2 | x8 | x8 | x8 | x8 | x8 | x6 (CE) | x6 || x2 | %18
 x8 | x8 | x8 | x8 | x8 | x8 | x8 | x8 | x8 | x8 | x8 | x8 | x8 | x8 | x8 | x6 |] %34
V:3
 [B,,B,]2 | [B,,B,]3 [B,,F,] [B,,B,]2 [B,,F,]2 | [B,,B,]3 [B,,A,] [D,B,]2 [B,,B,]2 | %3
 [E,B,]2 [F,B,]2 [G,B,]2 [E,B,]2 | [B,,B,]6 [B,,B,]2 | [B,,B,]3 [B,,F,] [B,,B,]2 [B,,F,]2 | %6
 [B,,B,]3 [C,A,] [D,B,]2 B,2 | [G,B,]2 [G,B,]2 [C,B,]2 [C,G,]2 | [F,A,]6 [F,A,]2 | %9
 [F,A,]3 [F,B,] ([F,A,][E,C]) ([D,B,][C,A,]) | [B,,B,]3 [C,A,] [D,B,]2 [B,,B,]2 | %11
 [E,B,]2 [F,B,]2 [G,B,]2 (B,G,) | [D,A,]6 [D,A,]2 | [C,A,]2 [D,B,]2 [E,G,]2 [E,G,]2 | %14
 [=E,G,]2 [E,B,]2 [F,B,]2 [G,B,]2 | [F,B,]3 [F,A,] [F,B,]2 F,2 | [B,,F,]6 || [F,B,]2 | %18
 [B,,B,]3 [C,B,] [D,B,]2 [F,B,]2 | B,6 [F,A,]2 | [G,B,]3 [D,B,] [E,B,]2 [E,G,]2 | %21
 [B,,B,]2 [B,,B,]4 [B,,B,]2 | [B,,B,]3 [C,B,] [D,B,]2 [F,B,]2 | B,6 B,2 | %24
 [G,B,]3 [G,B,] [C,B,]2 [C,G,]2 | [F,A,]6 [F,A,]2 | [B,,B,]3 [C,B,] [D,B,]2 [F,B,]2 | B,6 [F,A,]2 | %28
 [G,B,]3 [D,B,] [E,B,]2 [E,G,]2 | [B,,B,]2 [B,,B,]4 B,2 | [G,B,]3 [G,B,] [_G,B,]3 [G,B,] | %31
 [F,B,]2 [F,B,]2 !fermata![D,B,]2 [G,B,]2 | [F,B,]2 [F,D]2 !fermata![F,B,]3 [F,A,] | %33
 [F,A,]2 [B,,F,B,]4 |] %34
V:4
 x2 | x8 | x8 | x8 | x8 | x8 | x6 B,2 | x8 | x8 | x8 | x8 | x6 E,2 | x8 | x8 | x8 | x6 F,2 | x6 || %17
 x2 | x8 | B,6 x2 | x8 | x8 | x8 | B,6 B,2 | x8 | x8 | x8 | B,6 x2 | x8 | x6 B,2 | x8 | x8 | x8 | %33
 x6 |] %34

